flaticon/hand-gestures/tap-71.svg

<svg xmlns="http://www.w3.org/2000/svg" width="32" height="32" viewBox="0 0 24 24">
    <path d="M 20.257812 8.125 C 19.859375 8.042969 19.417969 8.082031 19.058594 8.242188 L 20.097656 4.523438 C 20.339844 3.683594 20.019531 2.765625 19.300781 2.324219 C 18.980469 2.125 18.617188 2.003906 18.21875 2.003906 C 17.019531 2.003906 16.460938 3.324219 16.257812 3.84375 L 15.019531 7.523438 L 15.019531 2.003906 C 15.019531 0.964844 14.21875 0.0859375 13.179688 0.00390625 C 12.582031 -0.0351562 12.019531 0.164062 11.621094 0.523438 C 11.222656 0.886719 11.019531 1.40625 11.019531 2.003906 L 11.019531 7.921875 L 10.019531 4.402344 C 9.941406 4.125 9.859375 3.84375 9.820312 3.523438 L 9.78125 3.203125 C 9.582031 2.246094 8.820312 1.605469 7.820312 1.605469 C 6.941406 1.605469 6.222656 2.125 5.941406 2.925781 C 5.820312 3.246094 5.820312 3.605469 5.902344 4.003906 L 7.382812 10.484375 C 6.382812 9.363281 4.660156 8.882812 3.34375 9.363281 C 3.140625 9.402344 2.984375 9.523438 2.78125 9.644531 C 2.183594 10.042969 2.222656 10.5625 2.222656 10.722656 C 2.183594 10.960938 2.222656 11.003906 2.78125 11.640625 C 3.460938 12.441406 4.941406 14.121094 5.863281 15.800781 C 5.902344 15.882812 7.023438 17.679688 8.261719 19 L 8.980469 21.199219 C 9.542969 22.878906 11.101562 24 12.859375 24 L 16.21875 24 C 17.9375 24 19.738281 22.558594 20.140625 20.878906 C 20.257812 20.402344 20.378906 20.039062 20.539062 19.878906 C 20.9375 19.402344 21.417969 18.28125 21.417969 16.800781 L 21.417969 12.042969 L 21.738281 10.5625 C 21.976562 9.441406 21.339844 8.363281 20.257812 8.125 Z M 20.9375 10.402344 L 20.617188 11.921875 C 20.617188 11.960938 20.617188 11.960938 20.617188 12.003906 L 20.617188 16.800781 C 20.617188 18.160156 20.140625 19.042969 19.898438 19.320312 C 19.851562 19.375 19.808594 19.4375 19.765625 19.503906 C 19.613281 19.59375 19.40625 19.667969 19.21875 19.722656 C 18.9375 19.800781 18.660156 19.921875 18.417969 20.082031 C 18.21875 20.199219 18.179688 20.441406 18.300781 20.640625 C 18.378906 20.722656 18.5 20.800781 18.617188 20.800781 C 18.699219 20.800781 18.777344 20.761719 18.859375 20.761719 C 18.964844 20.65625 19.164062 20.578125 19.375 20.507812 C 19.363281 20.566406 19.351562 20.621094 19.339844 20.679688 C 19.058594 22.039062 17.578125 23.199219 16.21875 23.199219 L 12.898438 23.199219 C 11.460938 23.199219 10.222656 22.28125 9.78125 20.960938 L 9.429688 19.902344 C 9.613281 20.046875 9.785156 20.15625 9.980469 20.320312 C 10.0625 20.359375 10.140625 20.402344 10.222656 20.402344 C 10.339844 20.402344 10.460938 20.359375 10.5 20.242188 C 10.660156 20.082031 10.621094 19.839844 10.460938 19.679688 C 10.222656 19.441406 9.980469 19.28125 9.742188 19.121094 C 9.464844 18.921875 9.1875 18.726562 8.910156 18.488281 C 7.722656 17.25 6.582031 15.402344 6.582031 15.402344 C 5.621094 13.683594 4.101562 11.960938 3.382812 11.121094 C 3.261719 10.960938 3.101562 10.761719 3.023438 10.683594 C 3.023438 10.5625 3.023438 10.484375 3.261719 10.28125 C 3.421875 10.203125 3.542969 10.121094 3.664062 10.082031 C 4.703125 9.722656 6.421875 10.203125 7.179688 11.523438 L 7.847656 12.523438 C 7.851562 12.535156 7.855469 12.550781 7.859375 12.5625 L 8.261719 13.363281 C 8.339844 13.523438 8.460938 13.601562 8.621094 13.601562 C 8.699219 13.601562 8.742188 13.601562 8.78125 13.523438 C 8.941406 13.441406 9.019531 13.203125 8.941406 13.003906 L 8.628906 12.378906 C 8.628906 12.359375 8.625 12.339844 8.621094 12.324219 L 6.703125 3.804688 C 6.621094 3.5625 6.621094 3.324219 6.703125 3.164062 C 6.863281 2.722656 7.300781 2.40625 7.820312 2.40625 C 8.460938 2.40625 8.859375 2.765625 8.980469 3.40625 L 9.019531 3.683594 C 9.0625 4.003906 9.140625 4.324219 9.222656 4.644531 L 11.019531 10.921875 C 11.058594 11.121094 11.261719 11.242188 11.460938 11.203125 C 11.660156 11.164062 11.820312 11.003906 11.820312 10.804688 L 11.820312 2.003906 C 11.820312 1.644531 11.941406 1.324219 12.179688 1.125 C 12.421875 0.886719 12.738281 0.765625 13.140625 0.804688 C 13.738281 0.84375 14.21875 1.363281 14.21875 2.003906 L 14.21875 10.003906 C 14.21875 10.203125 14.339844 10.363281 14.539062 10.402344 C 14.738281 10.402344 14.898438 10.324219 14.980469 10.121094 L 16.980469 4.125 C 17.097656 3.804688 17.539062 2.804688 18.21875 2.804688 C 18.460938 2.804688 18.660156 2.882812 18.859375 3.003906 C 19.257812 3.246094 19.457031 3.804688 19.296875 4.324219 L 17.417969 11.082031 C 17.417969 11.203125 17.460938 11.28125 17.5 11.402344 C 17.539062 11.523438 17.621094 11.5625 17.738281 11.601562 C 17.9375 11.644531 18.179688 11.523438 18.21875 11.324219 L 18.617188 9.84375 C 18.777344 9.203125 19.417969 8.761719 20.058594 8.921875 C 20.699219 9.042969 21.097656 9.683594 20.9375 10.402344 Z M 20.9375 10.402344"/>
</svg>

<svg xmlns="http://www.w3.org/2000/svg" width="32" height="32" viewBox="0 0 24 24">
    <path d="M20.258 8.125a2.022 2.022 0 0 0-1.2.117l1.04-3.719c.242-.84-.078-1.757-.797-2.199a2.03 2.03 0 0 0-1.082-.32c-1.2 0-1.758 1.32-1.961 1.84l-1.238 3.68v-5.52c0-1.04-.801-1.918-1.84-2-.598-.04-1.16.16-1.559.52-.398.363-.601.882-.601 1.48v5.918l-1-3.52c-.079-.277-.16-.558-.2-.879l-.039-.32c-.199-.957-.96-1.598-1.96-1.598-.88 0-1.598.52-1.88 1.32-.12.321-.12.68-.039 1.079l1.48 6.48c-1-1.12-2.722-1.601-4.038-1.12-.203.038-.36.16-.563.28-.597.399-.558.918-.558 1.079-.04.238 0 .28.558.918.68.8 2.16 2.48 3.082 4.16.04.082 1.16 1.879 2.399 3.199l.718 2.2a4.088 4.088 0 0 0 3.88 2.8h3.359c1.718 0 3.52-1.441 3.922-3.121.117-.477.238-.84.398-1 .398-.477.879-1.598.879-3.078v-4.758l.32-1.48c.239-1.122-.398-2.2-1.48-2.438zm.68 2.277l-.32 1.52V16.8c0 1.36-.477 2.242-.72 2.52-.046.054-.09.116-.132.183-.153.09-.36.164-.547.219-.282.078-.559.199-.801.359-.2.117-.238.36-.117.559.078.082.199.16.316.16.082 0 .16-.04.242-.04.106-.105.305-.183.516-.253l-.035.172c-.281 1.36-1.762 2.52-3.121 2.52h-3.32a3.279 3.279 0 0 1-3.118-2.24l-.351-1.058c.183.145.355.254.55.418.082.04.16.082.243.082.117 0 .238-.043.277-.16.16-.16.121-.402-.04-.562-.237-.239-.48-.399-.718-.559-.277-.2-.555-.394-.832-.633-1.187-1.238-2.328-3.086-2.328-3.086-.96-1.718-2.48-3.441-3.2-4.28a5.586 5.586 0 0 0-.359-.438c0-.121 0-.2.239-.403.16-.078.281-.16.402-.199 1.04-.36 2.758.121 3.516 1.441l.668 1 .011.04.403.8c.078.16.199.239.36.239.077 0 .12 0 .16-.079.16-.082.238-.32.16-.52l-.313-.624a.23.23 0 0 0-.008-.055l-1.918-8.52c-.082-.241-.082-.48 0-.64.16-.441.598-.758 1.117-.758.64 0 1.04.36 1.16 1l.04.278c.043.32.12.64.203.96l1.797 6.278c.039.2.242.32.44.281.2-.039.36-.2.36-.398V2.004c0-.36.121-.68.36-.879.242-.238.558-.36.96-.32.598.039 1.079.558 1.079 1.199v8c0 .2.12.36.32.398.2 0 .36-.078.441-.28l2-5.997c.118-.32.56-1.32 1.239-1.32.242 0 .441.078.64.199.399.242.598.8.438 1.32l-1.879 6.758c0 .121.043.2.082.32.04.121.121.16.238.2.2.043.442-.079.48-.278l.4-1.48c.16-.64.8-1.082 1.44-.922.641.121 1.04.762.88 1.48zm0 0"/>
</svg>
